dist/images/joy/advantages3.svg

<svg width="126" height="126" viewBox="0 0 126 126" fill="none" xmlns="http://www.w3.org/2000/svg">
<circle cx="63" cy="63" r="61.5" stroke="#E2704C" stroke-width="3"/>
<g clip-path="url(#clip0)">
<path d="M91.2129 70.2441H90.0215V57.7344C90.0215 50.9679 84.5165 45.4629 77.75 45.4629H65.1465L61.8575 42.1739C61.5223 41.8386 61.0678 41.6504 60.5938 41.6504H56.6621V37.5996H59.6406C60.6276 37.5996 61.4277 36.7995 61.4277 35.8125C61.4277 34.8255 60.6276 34.0254 59.6406 34.0254H50.1094C49.1224 34.0254 48.3223 34.8255 48.3223 35.8125C48.3223 36.7995 49.1224 37.5996 50.1094 37.5996H53.0879V41.6504H49.1562C48.6822 41.6504 48.2277 41.8386 47.8926 42.1739L44.6035 45.4629H33.7871C32.8001 45.4629 32 46.263 32 47.25V57.7344C32 58.7213 32.8001 59.5215 33.7871 59.5215H44.6035L47.8925 62.8105C48.2277 63.1457 48.6822 63.334 49.1562 63.334H60.5938C61.0678 63.334 61.5223 63.1457 61.8574 62.8105L65.1465 59.5215H75.9629V70.2441H74.8906C73.9037 70.2441 73.1035 71.0443 73.1035 72.0312C73.1035 73.0182 73.9037 73.8184 74.8906 73.8184H91.2129C92.1999 73.8184 93 73.0182 93 72.0312C93 71.0443 92.1999 70.2441 91.2129 70.2441ZM35.5742 49.0371H43.5566V55.9473H35.5742V49.0371ZM59.8535 59.7598H49.8965L47.1309 56.9942V47.9902L49.8965 45.2246H59.8535L62.6191 47.9902V56.9942L59.8535 59.7598ZM79.5371 70.2441V57.7344C79.5371 56.7474 78.737 55.9473 77.75 55.9473H66.1934V49.0371H77.75C82.5456 49.0371 86.4473 52.9387 86.4473 57.7344V70.2441H79.5371Z" fill="#373737"/>
<path d="M84.698 78.359C84.0086 77.7059 82.9288 77.7059 82.2393 78.359C81.2141 79.3307 77.8691 82.7081 77.8691 85.3749C77.8691 88.4626 80.3811 90.9745 83.4688 90.9745C86.5564 90.9745 89.0684 88.4626 89.0684 85.3749C89.0684 82.7081 85.7234 79.3307 84.698 78.359ZM83.4688 87.4003C82.3519 87.4003 81.4434 86.4918 81.4434 85.3753C81.4505 84.8589 82.3316 83.533 83.4688 82.2368C84.6061 83.5331 85.487 84.8589 85.4941 85.3752C85.494 86.4919 84.5855 87.4003 83.4688 87.4003Z" fill="#373737"/>
</g>
<defs>
<clipPath id="clip0">
<rect width="61" height="61" fill="white" transform="translate(32 32)"/>
</clipPath>
</defs>
</svg>

<svg width="126" height="126" fill="none" xmlns="http://www.w3.org/2000/svg"><circle cx="63" cy="63" r="61.5" stroke="#E2704C" stroke-width="3"/><g clip-path="url(#clip0)" fill="#373737"><path d="M91.213 70.244h-1.191v-12.51c0-6.766-5.506-12.271-12.272-12.271H65.147l-3.29-3.29a1.787 1.787 0 00-1.263-.523h-3.932V37.6h2.979a1.787 1.787 0 100-3.575h-9.532a1.787 1.787 0 100 3.575h2.979v4.05h-3.932c-.474 0-.928.189-1.263.524l-3.29 3.289H33.787c-.987 0-1.787.8-1.787 1.787v10.484c0 .987.8 1.788 1.787 1.788h10.816l3.29 3.288c.335.336.79.524 1.263.524h11.438c.474 0 .928-.188 1.263-.524l3.29-3.288h10.816v10.722H74.89a1.787 1.787 0 000 3.574h16.322a1.787 1.787 0 000-3.574zM35.574 49.037h7.983v6.91h-7.983v-6.91zm24.28 10.723h-9.957l-2.766-2.766V47.99l2.766-2.765h9.956l2.766 2.765v9.004l-2.766 2.766zm19.683 10.484v-12.51c0-.987-.8-1.787-1.787-1.787H66.193v-6.91H77.75c4.796 0 8.697 3.902 8.697 8.697v12.51h-6.91zm5.161 8.115a1.788 1.788 0 00-2.459 0c-1.025.972-4.37 4.35-4.37 7.016 0 3.088 2.512 5.6 5.6 5.6 3.087 0 5.6-2.512 5.6-5.6 0-2.667-3.346-6.044-4.371-7.016zm-1.23 9.041a2.027 2.027 0 01-2.025-2.025c.008-.516.889-1.842 2.026-3.138 1.137 1.296 2.018 2.622 2.025 3.138A2.028 2.028 0 0183.47 87.4z"/></g><defs><clipPath id="clip0"><path fill="#fff" transform="translate(32 32)" d="M0 0h61v61H0z"/></clipPath></defs></svg>
